X:1
T:THe Gay Spanish Maid
M:4/4
L:1/8
K:F
 CC| F2 CF A2 FA| G2 AG F2 AB| c2 dc G2 A=B| c6|A-B| c2 dc F2 GA|D-G ED C2 CC|\
 F2 GA C2 EG| F6||
